X:6624
T:Guns of the Magnificient Seven
M:4/4
L:1/8
K:A Dorian
EAAG ABcA|EAFA GEDG|EAAG ABcd|egdB BAAG|!
EAAG ABcA|EAFA GEDG|EAAG ABcd|egdB BAA2:|!
ABcd eAAf|gedc BGGB|ABcd eaaf|gedB BAA2:|!
M:3/4
L:1/8
egdB A2|
M:4/4
egdB GABd|eBdB Aaag|egdB BAA2:|!
